X:0895
T:Miss Helen Grant's Reel.
N:from John Macglashan, 1798
M:C
L:1/8
Q:1/2=104
I: :| ||
Z:Jack Campin * www.campin.me.uk * 2009
K:D
F|A3 B AFdB|ABAF EDEF| A3      B AFdF|EDEF D/D/D D:|
A|defd geaf|defd edBe| de`````fd geaf|edef d/d/d df|
  defd geaf|defd edBe|(fg/a/) ef dBAF|GBAF D/D/D D|]

